packages/ffe-icons/icons/open/400/sm/sd_card.svg

<svg xmlns="http://www.w3.org/2000/svg" height="20" viewBox="0 -960 960 960" width="20"><path d="M395.789-528Q411-528 421.5-538.325 432-548.65 432-563.912v-71.825Q432-651 421.711-661.5q-10.29-10.5-25.5-10.5Q381-672 370.5-661.675 360-651.35 360-636.088v71.825Q360-549 370.289-538.5q10.29 10.5 25.5 10.5Zm120 0Q531-528 541.5-538.325 552-548.65 552-563.912v-71.825Q552-651 541.711-661.5q-10.29-10.5-25.5-10.5Q501-672 490.5-661.675 480-651.35 480-636.088v71.825Q480-549 490.289-538.5q10.29 10.5 25.5 10.5Zm120 0Q651-528 661.5-538.325 672-548.65 672-563.912v-71.825Q672-651 661.711-661.5q-10.29-10.5-25.5-10.5Q621-672 610.5-661.675 600-651.35 600-636.088v71.825Q600-549 610.289-538.5q10.29 10.5 25.5 10.5ZM263.717-96Q234-96 213-117.15T192-168v-474q0-14.222 5-27.111Q202-682 213-693l150-150q11-11 23.889-16T414-864h282q29.7 0 50.85 21.15Q768-821.7 768-792v624q0 29.7-21.162 50.85Q725.676-96 695.96-96H263.717Zm.283-72h432v-624H414L264-642v474Zm0 0h432-432Z"/></svg>

<svg xmlns="http://www.w3.org/2000/svg" height="20" viewBox="0 -960 960 960" width="20"><path d="M395.79-528q15.21 0 25.71-10.32 10.5-10.33 10.5-25.59v-71.83q0-15.26-10.29-25.76-10.29-10.5-25.5-10.5t-25.71 10.32Q360-651.35 360-636.09v71.83q0 15.26 10.29 25.76 10.29 10.5 25.5 10.5Zm120 0q15.21 0 25.71-10.32 10.5-10.33 10.5-25.59v-71.83q0-15.26-10.29-25.76-10.29-10.5-25.5-10.5t-25.71 10.32Q480-651.35 480-636.09v71.83q0 15.26 10.29 25.76 10.29 10.5 25.5 10.5Zm120 0q15.21 0 25.71-10.32 10.5-10.33 10.5-25.59v-71.83q0-15.26-10.29-25.76-10.29-10.5-25.5-10.5t-25.71 10.32Q600-651.35 600-636.09v71.83q0 15.26 10.29 25.76 10.29 10.5 25.5 10.5ZM263.72-96Q234-96 213-117.15T192-168v-474q0-14.22 5-27.11Q202-682 213-693l150-150q11-11 23.89-16t27.11-5h282q29.7 0 50.85 21.15Q768-821.7 768-792v624q0 29.7-21.16 50.85Q725.68-96 695.96-96H263.72Zm.28-72h432v-624H414L264-642v474Zm0 0h432-432Z"/></svg>
